public/images/dice/dice6.svg

<?xml version="1.0" encoding="UTF-8" standalone="no"?>
<!-- Generator: Gravit.io -->

<svg
   xmlns:dc="http://purl.org/dc/elements/1.1/"
   xmlns:cc="http://creativecommons.org/ns#"
   xmlns:rdf="http://www.w3.org/1999/02/22-rdf-syntax-ns#"
   xmlns:svg="http://www.w3.org/2000/svg"
   xmlns="http://www.w3.org/2000/svg"
   xmlns:sodipodi="http://sodipodi.sourceforge.net/DTD/sodipodi-0.dtd"
   xmlns:inkscape="http://www.inkscape.org/namespaces/inkscape"
   style="isolation:isolate"
   viewBox="305 164 56 56"
   width="56"
   height="56"
   version="1.1"
   id="svg3954"
   sodipodi:docname="dice6.svg"
   inkscape:version="0.92.2 5c3e80d, 2017-08-06">
  <metadata
     id="metadata3960">
    <rdf:RDF>
      <cc:Work
         rdf:about="">
        <dc:format>image/svg+xml</dc:format>
        <dc:type
           rdf:resource="http://purl.org/dc/dcmitype/StillImage" />
        <dc:title></dc:title>
      </cc:Work>
    </rdf:RDF>
  </metadata>
  <defs
     id="defs3958" />
  <sodipodi:namedview
     pagecolor="#ffffff"
     bordercolor="#666666"
     borderopacity="1"
     objecttolerance="10"
     gridtolerance="10"
     guidetolerance="10"
     inkscape:pageopacity="0"
     inkscape:pageshadow="2"
     inkscape:window-width="640"
     inkscape:window-height="480"
     id="namedview3956"
     showgrid="false"
     inkscape:zoom="2.6222222"
     inkscape:cx="28"
     inkscape:cy="45"
     inkscape:window-x="378"
     inkscape:window-y="86"
     inkscape:window-maximized="0"
     inkscape:current-layer="g3952" />
  <g
     id="g3952"
     transform="translate(0,-34)">
    <g
       id="g3950">
      <path
         d="m 310.6,198 h 44.8 c 3.091,0 5.6,2.509 5.6,5.6 v 44.8 c 0,3.091 -2.509,5.6 -5.6,5.6 h -44.8 c -3.091,0 -5.6,-2.509 -5.6,-5.6 v -44.8 c 0,-3.091 2.509,-5.6 5.6,-5.6 z"
         style="fill:#ebebeb;stroke:none;stroke-miterlimit:10"
         id="path3934"
         inkscape:connector-curvature="0" />
      <g
         id="g3948">
        <circle
           cx="322.5"
           cy="226"
           r="5"
           id="circle3936"
           style="vector-effect:non-scaling-stroke;fill:#000000" />
        <circle
           cx="343.5"
           cy="226"
           r="5"
           id="circle3938"
           style="vector-effect:non-scaling-stroke;fill:#000000" />
        <circle
           cx="322.5"
           cy="240"
           r="5"
           id="circle3940"
           style="vector-effect:non-scaling-stroke;fill:#000000" />
        <circle
           cx="343.5"
           cy="240"
           r="5"
           id="circle3942"
           style="vector-effect:non-scaling-stroke;fill:#000000" />
        <circle
           cx="322.5"
           cy="212"
           r="5"
           id="circle3944"
           style="vector-effect:non-scaling-stroke;fill:#000000" />
        <circle
           cx="343.5"
           cy="212"
           r="5"
           id="circle3946"
           style="vector-effect:non-scaling-stroke;fill:#000000" />
      </g>
    </g>
  </g>
</svg>

<?xml version="1.0" standalone="no"?><!-- Generator: Gravit.io --><svg xmlns="http://www.w3.org/2000/svg" xmlns:xlink="http://www.w3.org/1999/xlink" style="isolation:isolate" viewBox="305 164 56 90" width="56" height="90"><g><g><path d="M 310.6 198 L 355.4 198 C 358.491 198 361 200.509 361 203.6 L 361 248.4 C 361 251.491 358.491 254 355.4 254 L 310.6 254 C 307.509 254 305 251.491 305 248.4 L 305 203.6 C 305 200.509 307.509 198 310.6 198 Z" style="stroke:none;fill:#EBEBEB;stroke-miterlimit:10;"/><g><circle vector-effect="non-scaling-stroke" cx="322.50000000000034" cy="226.00000000000014" r="5" fill="rgb(0,0,0)"/><circle vector-effect="non-scaling-stroke" cx="343.50000000000034" cy="226.00000000000014" r="5" fill="rgb(0,0,0)"/><circle vector-effect="non-scaling-stroke" cx="322.50000000000034" cy="240.00000000000003" r="5" fill="rgb(0,0,0)"/><circle vector-effect="non-scaling-stroke" cx="343.50000000000034" cy="240.00000000000003" r="5" fill="rgb(0,0,0)"/><circle vector-effect="non-scaling-stroke" cx="322.50000000000034" cy="212.0000000000002" r="5" fill="rgb(0,0,0)"/><circle vector-effect="non-scaling-stroke" cx="343.5000000000004" cy="212.0000000000002" r="5" fill="rgb(0,0,0)"/></g></g></g></svg>
